actions/16/selection-combine.svg

<?xml version="1.0" encoding="UTF-8" standalone="no"?>
<!-- Created with Inkscape (http://www.inkscape.org/) -->

<svg
   xmlns:dc="http://purl.org/dc/elements/1.1/"
   xmlns:cc="http://creativecommons.org/ns#"
   xmlns:rdf="http://www.w3.org/1999/02/22-rdf-syntax-ns#"
   xmlns:svg="http://www.w3.org/2000/svg"
   xmlns="http://www.w3.org/2000/svg"
   xmlns:inkscape="http://www.inkscape.org/namespaces/inkscape"
   version="1.1"
   width="16"
   height="16"
   id="svg7435">
  <defs
     id="defs7437" />
  <metadata
     id="metadata7440">
    <rdf:RDF>
      <cc:Work
         rdf:about="">
        <dc:format>image/svg+xml</dc:format>
        <dc:type
           rdf:resource="http://purl.org/dc/dcmitype/StillImage" />
      </cc:Work>
    </rdf:RDF>
  </metadata>
  <g
     id="layer1">
    <path
       d="m 10,0.5 c -2.8672686,0 -5.2156077,2.1982965 -5.46875,5 L 0.5,5.5 l 0,10 10,0 0,-4.03125 C 13.301703,11.215608 15.5,8.8672695 15.5,6 15.5,2.9639991 13.036,0.50000001 10,0.5 z"
       inkscape:connector-curvature="0"
       id="rect8333"
       style="fill:#729fcf;fill-opacity:1;stroke:#204a87;stroke-width:1;stroke-linecap:butt;stroke-linejoin:round;stroke-miterlimit:0;stroke-opacity:1;stroke-dasharray:none;stroke-dashoffset:0" />
    <path
       d="M 10,1.5 C 7.5160004,1.5 5.4999999,3.5160002 5.5,6 c 0,0.1716882 0.043749,0.3332944 0.0625,0.5 l -4.0625,0 0,8 8,0 0,-4.0625 C 9.6667056,10.456251 9.8283118,10.5 10,10.5 12.484,10.5 14.5,8.4839998 14.5,6 14.5,3.5160002 12.484,1.5 10,1.5 z"
       inkscape:connector-curvature="0"
       id="path8339"
       style="opacity:0.3;fill:none;stroke:#ffffff;stroke-width:1;stroke-linecap:butt;stroke-linejoin:miter;stroke-miterlimit:0;stroke-opacity:1;stroke-dasharray:none;stroke-dashoffset:0" />
  </g>
</svg>

<?xml version="1.0" encoding="UTF-8" standalone="no"?>
<!-- Created with Inkscape (http://www.inkscape.org/) -->
<svg
   xmlns:dc="http://purl.org/dc/elements/1.1/"
   xmlns:cc="http://web.resource.org/cc/"
   xmlns:rdf="http://www.w3.org/1999/02/22-rdf-syntax-ns#"
   xmlns:svg="http://www.w3.org/2000/svg"
   xmlns="http://www.w3.org/2000/svg"
   xmlns:sodipodi="http://sodipodi.sourceforge.net/DTD/sodipodi-0.dtd"
   xmlns:inkscape="http://www.inkscape.org/namespaces/inkscape"
   width="16px"
   height="16px"
   id="svg7435"
   sodipodi:version="0.32"
   inkscape:version="0.44"
   sodipodi:docbase="/home/andreas/project/inkscape/16x16/actions"
   sodipodi:docname="selection-combine.svg"
   inkscape:export-filename="/home/andreas/project/inkscape/16x16/actions/selection-combine.png"
   inkscape:export-xdpi="90"
   inkscape:export-ydpi="90">
  <defs
     id="defs7437" />
  <sodipodi:namedview
     id="base"
     pagecolor="#ffffff"
     bordercolor="#666666"
     borderopacity="1.0"
     inkscape:pageopacity="0.0"
     inkscape:pageshadow="2"
     inkscape:zoom="22.197802"
     inkscape:cx="8"
     inkscape:cy="8"
     inkscape:current-layer="layer1"
     showgrid="false"
     inkscape:grid-bbox="true"
     inkscape:document-units="px"
     inkscape:window-width="1674"
     inkscape:window-height="970"
     inkscape:window-x="0"
     inkscape:window-y="25" />
  <metadata
     id="metadata7440">
    <rdf:RDF>
      <cc:Work
         rdf:about="">
        <dc:format>image/svg+xml</dc:format>
        <dc:type
           rdf:resource="http://purl.org/dc/dcmitype/StillImage" />
      </cc:Work>
    </rdf:RDF>
  </metadata>
  <g
     id="layer1"
     inkscape:label="Layer 1"
     inkscape:groupmode="layer">
    <path
       style="opacity:1;fill:#729fcf;fill-opacity:1;stroke:#204a87;stroke-width:1;stroke-linecap:butt;stroke-linejoin:round;stroke-miterlimit:0;stroke-dasharray:none;stroke-dashoffset:0;stroke-opacity:1"
       d="M 10 0.5 C 7.1327314 0.5 4.7843923 2.6982965 4.53125 5.5 L 0.5 5.5 L 0.5 15.5 L 10.5 15.5 L 10.5 11.46875 C 13.301703 11.215608 15.5 8.8672695 15.5 6 C 15.5 2.9639991 13.036 0.50000001 10 0.5 z "
       id="rect8333" />
    <path
       style="opacity:0.3;fill:none;fill-opacity:1;stroke:white;stroke-width:1;stroke-linecap:butt;stroke-linejoin:miter;stroke-miterlimit:0;stroke-dasharray:none;stroke-dashoffset:0;stroke-opacity:1"
       d="M 10 1.5 C 7.5160004 1.5 5.4999999 3.5160002 5.5 6 C 5.5 6.1716882 5.5437493 6.3332944 5.5625 6.5 L 1.5 6.5 L 1.5 14.5 L 9.5 14.5 L 9.5 10.4375 C 9.6667056 10.456251 9.8283118 10.5 10 10.5 C 12.484 10.5 14.5 8.4839998 14.5 6 C 14.5 3.5160002 12.484 1.5 10 1.5 z "
       id="path8339" />
  </g>
</svg>
